public/images/languages/julia.svg

<svg xmlns="http://www.w3.org/2000/svg" xml:space="preserve" style="fill-rule:evenodd;clip-rule:evenodd;stroke-linejoin:round;stroke-miterlimit:2" viewBox="0 0 2400 1600"><path d="M0 0h2400v1600H0z" style="fill:#ccc"/><path d="M93.14 80.94h-13V21.13l13-3.58z" style="fill:#1a1a1a;fill-rule:nonzero" transform="translate(544.342 377.544)scale(8.56288)"/><path d="M22.17 36.33c-4.882 0-8.9-4.018-8.9-8.9s4.018-8.9 8.9-8.9 8.9 4.018 8.9 8.9c-.005 4.88-4.02 8.895-8.9 8.9" style="fill:#4d64ae;fill-rule:nonzero" transform="translate(544.342 377.544)scale(8.56288)"/><path d="M29.14 80.83A26.5 26.5 0 0 1 27.83 90a12.1 12.1 0 0 1-3.62 5.4 12.3 12.3 0 0 1-5.64 2.6 36.6 36.6 0 0 1-7.32.67 22.5 22.5 0 0 1-4.81-.47 13 13 0 0 1-3.54-1.27 6 6 0 0 1-2.14-1.86A3.62 3.62 0 0 1 0 92.88a4.26 4.26 0 0 1 1.59-3.38 6.48 6.48 0 0 1 4.33-1.35 5 5 0 0 1 1.87.32c.51.197.992.463 1.43.79q.615.497 1.16 1.07c.31.4.59.77.83 1.12A7.6 7.6 0 0 0 12.72 93c.34.234.738.372 1.15.4.353.004.7-.093 1-.28.335-.251.584-.601.71-1a7.2 7.2 0 0 0 .4-1.91c.121-1.015.174-2.038.16-3.06V40.48l13-3.58zm19-42.89V68c-.005.82.155 1.633.47 2.39A6.5 6.5 0 0 0 50 72.24a7 7 0 0 0 2 1.27c.759.32 1.576.483 2.4.48a4.2 4.2 0 0 0 1.61-.4 8.4 8.4 0 0 0 1.8-1.12 13.3 13.3 0 0 0 1.81-1.66 13 13 0 0 0 1.61-2.11V37.94h13v43h-13v-4a22.5 22.5 0 0 1-5.43 3.53 13.6 13.6 0 0 1-5.59 1.28 16.5 16.5 0 0 1-5.9-1 15.6 15.6 0 0 1-4.76-2.89 13.6 13.6 0 0 1-3.17-4.28 12.4 12.4 0 0 1-1.15-5.29V37.94z" style="fill:#1a1a1a;fill-rule:nonzero" transform="translate(544.342 377.544)scale(8.56288)"/><path d="M105.79 36.33c-4.879-.005-8.89-4.021-8.89-8.9 0-4.882 4.018-8.9 8.9-8.9s8.9 4.018 8.9 8.9c-.005 4.884-4.026 8.9-8.91 8.9" style="fill:#ca3c32;fill-rule:nonzero" transform="translate(544.342 377.544)scale(8.56288)"/><path d="M127.18 36.33c-4.879-.005-8.89-4.021-8.89-8.9 0-4.882 4.018-8.9 8.9-8.9s8.9 4.018 8.9 8.9c-.005 4.884-4.026 8.9-8.91 8.9" style="fill:#9259a3;fill-rule:nonzero" transform="translate(544.342 377.544)scale(8.56288)"/><path d="M116.49 17.8c-4.882 0-8.9-4.018-8.9-8.9s4.018-8.9 8.9-8.9 8.9 4.018 8.9 8.9v.01c0 4.877-4.013 8.89-8.89 8.89z" style="fill:#399746;fill-rule:nonzero" transform="translate(544.342 377.544)scale(8.56288)"/><path d="m100.14 40.6 13-3.58v43.92h-13zm40 18.17a38 38 0 0 0-3.77 1.87 22 22 0 0 0-3.46 2.3 12.8 12.8 0 0 0-2.55 2.67 5.1 5.1 0 0 0-1 2.94 8.5 8.5 0 0 0 .32 2.34c.192.677.486 1.321.87 1.91.334.491.75.921 1.23 1.27.443.309.97.476 1.51.48a6.3 6.3 0 0 0 3.18-1 41 41 0 0 0 3.62-2.47zm13 22.17h-13v-3.42c-.71.61-1.42 1.17-2.11 1.67-.723.521-1.493.973-2.3 1.35-.905.395-1.851.69-2.82.88a20 20 0 0 1-3.78.31 16 16 0 0 1-5.33-.83 12.2 12.2 0 0 1-4-2.31 10.2 10.2 0 0 1-2.51-3.53 11 11 0 0 1-.87-4.37 10.3 10.3 0 0 1 .91-4.42 13.1 13.1 0 0 1 2.55-3.57 19.4 19.4 0 0 1 3.77-2.86 40 40 0 0 1 4.65-2.31c1.67-.69 3.4-1.32 5.17-1.91l5.25-1.71 1.43-.31v-4.26a11.9 11.9 0 0 0-.44-3.45 5.8 5.8 0 0 0-1.15-2.31 4 4 0 0 0-1.79-1.31 6.6 6.6 0 0 0-2.34-.4 7.4 7.4 0 0 0-2.59.4 4.4 4.4 0 0 0-1.67 1.11 3.94 3.94 0 0 0-.91 1.59 6.5 6.5 0 0 0-.28 2 9.5 9.5 0 0 1-.28 2.35 4.85 4.85 0 0 1-.91 2A4.5 4.5 0 0 1 126 52.6a6.8 6.8 0 0 1-2.9.52 7.5 7.5 0 0 1-2.51-.4 6.2 6.2 0 0 1-1.91-1.15 6 6 0 0 1-1.27-1.75 5.6 5.6 0 0 1-.44-2.18 6.42 6.42 0 0 1 1.51-4.1 13.15 13.15 0 0 1 4.06-3.3 23.5 23.5 0 0 1 5.92-2.14 31 31 0 0 1 7.12-.8 32.2 32.2 0 0 1 7.87.84 16.4 16.4 0 0 1 5.49 2.34 9.55 9.55 0 0 1 3.18 3.66 10.9 10.9 0 0 1 1 4.81z" style="fill:#1a1a1a;fill-rule:nonzero" transform="translate(544.342 377.544)scale(8.56288)"/></svg>

<?xml version="1.0" encoding="UTF-8" standalone="no"?>
<svg
   width="100%"
   height="100%"
   viewBox="0 0 2400 1600"
   version="1.1"
   xml:space="preserve"
   style="fill-rule:evenodd;clip-rule:evenodd;stroke-linejoin:round;stroke-miterlimit:2;"
   id="svg177"
   sodipodi:docname="julia.svg"
   inkscape:version="1.2.2 (b0a8486541, 2022-12-01, custom)"
   xmlns:inkscape="http://www.inkscape.org/namespaces/inkscape"
   xmlns:sodipodi="http://sodipodi.sourceforge.net/DTD/sodipodi-0.dtd"
   xmlns="http://www.w3.org/2000/svg"
   xmlns:svg="http://www.w3.org/2000/svg"><defs
   id="defs181" /><sodipodi:namedview
   id="namedview179"
   pagecolor="#ffffff"
   bordercolor="#000000"
   borderopacity="0.25"
   inkscape:showpageshadow="2"
   inkscape:pageopacity="0.0"
   inkscape:pagecheckerboard="0"
   inkscape:deskcolor="#d1d1d1"
   showgrid="false"
   inkscape:zoom="0.54583333"
   inkscape:cx="1200"
   inkscape:cy="803.35878"
   inkscape:window-width="1024"
   inkscape:window-height="1088"
   inkscape:window-x="0"
   inkscape:window-y="27"
   inkscape:window-maximized="0"
   inkscape:current-layer="svg177" />
    <rect
   x="0"
   y="0"
   width="2400"
   height="1600"
   style="fill:#cccccc"
   id="rect153" />
    <g
   transform="matrix(8.56288,0,0,8.56288,544.342,377.544)"
   id="g175">
        <g
   id="Layer_2">
            <g
   id="Layer_1-2">
                <g
   id="layer1">
                    <g
   id="g3855">
                        <g
   id="g945">
                            <g
   id="g984">
                                <g
   id="g920">
                                    <path
   id="path3804"
   d="M93.14,80.94L80.14,80.94L80.14,21.13L93.14,17.55L93.14,80.94Z"
   style="fill:rgb(26,26,26);fill-rule:nonzero;" />
                                    <g
   id="g898">
                                        <g
   id="g893">
                                            <path
   id="path19"
   d="M22.17,36.33C17.288,36.33 13.27,32.312 13.27,27.43C13.27,22.548 17.288,18.53 22.17,18.53C27.052,18.53 31.07,22.548 31.07,27.43C31.065,32.31 27.05,36.325 22.17,36.33Z"
   style="fill:rgb(77,100,174);fill-rule:nonzero;" />
                                        </g>
                                        <path
   id="path3819"
   d="M29.14,80.83C29.246,83.94 28.802,87.044 27.83,90C27.138,92.096 25.886,93.963 24.21,95.4C22.583,96.734 20.641,97.629 18.57,98C16.159,98.468 13.706,98.693 11.25,98.67C9.634,98.687 8.022,98.529 6.44,98.2C5.205,97.95 4.012,97.523 2.9,96.93C2.048,96.49 1.314,95.852 0.76,95.07C0.274,94.443 0.006,93.673 0,92.88C-0.019,91.57 0.569,90.321 1.59,89.5C2.823,88.543 4.361,88.063 5.92,88.15C6.558,88.136 7.193,88.245 7.79,88.47C8.3,88.667 8.782,88.933 9.22,89.26C9.63,89.591 10.017,89.948 10.38,90.33C10.69,90.73 10.97,91.1 11.21,91.45C11.637,92.036 12.145,92.558 12.72,93C13.06,93.234 13.458,93.372 13.87,93.4C14.223,93.404 14.57,93.307 14.87,93.12C15.205,92.869 15.454,92.519 15.58,92.12C15.8,91.505 15.934,90.862 15.98,90.21C16.101,89.195 16.154,88.172 16.14,87.15L16.14,40.48L29.14,36.9L29.14,80.83Z"
   style="fill:rgb(26,26,26);fill-rule:nonzero;" />
                                    </g>
                                    <path
   id="path3802"
   d="M48.14,37.94L48.14,68C48.135,68.82 48.295,69.633 48.61,70.39C48.958,71.085 49.429,71.712 50,72.24C50.59,72.774 51.266,73.203 52,73.51C52.759,73.83 53.576,73.993 54.4,73.99C54.958,73.965 55.505,73.829 56.01,73.59C56.655,73.294 57.26,72.918 57.81,72.47C58.463,71.974 59.069,71.418 59.62,70.81C60.228,70.164 60.767,69.457 61.23,68.7L61.23,37.94L74.23,37.94L74.23,80.94L61.23,80.94L61.23,76.94C59.6,78.373 57.771,79.562 55.8,80.47C54.049,81.289 52.143,81.725 50.21,81.75C48.199,81.779 46.199,81.44 44.31,80.75C42.563,80.08 40.95,79.101 39.55,77.86C38.221,76.657 37.143,75.202 36.38,73.58C35.612,71.923 35.219,70.116 35.23,68.29L35.23,37.94L48.14,37.94Z"
   style="fill:rgb(26,26,26);fill-rule:nonzero;" />
                                    <g
   id="g905">
                                        <g
   id="g890">
                                            <path
   id="path13"
   d="M105.79,36.33C100.911,36.325 96.9,32.309 96.9,27.43C96.9,22.548 100.918,18.53 105.8,18.53C110.682,18.53 114.7,22.548 114.7,27.43C114.695,32.314 110.674,36.33 105.79,36.33Z"
   style="fill:rgb(202,60,50);fill-rule:nonzero;" />
                                            <path
   id="path25"
   d="M127.18,36.33C122.301,36.325 118.29,32.309 118.29,27.43C118.29,22.548 122.308,18.53 127.19,18.53C132.072,18.53 136.09,22.548 136.09,27.43C136.085,32.314 132.064,36.33 127.18,36.33Z"
   style="fill:rgb(146,89,163);fill-rule:nonzero;" />
                                            <path
   id="path31"
   d="M116.49,17.8C111.608,17.8 107.59,13.782 107.59,8.9C107.59,4.018 111.608,0 116.49,0C121.372,0 125.39,4.018 125.39,8.9C125.39,8.903 125.39,8.907 125.39,8.91C125.39,13.787 121.377,17.8 116.5,17.8C116.497,17.8 116.493,17.8 116.49,17.8Z"
   style="fill:rgb(57,151,70);fill-rule:nonzero;" />
                                        </g>
                                        <path
   id="path3823"
   d="M100.14,40.6L113.14,37.02L113.14,80.94L100.14,80.94L100.14,40.6Z"
   style="fill:rgb(26,26,26);fill-rule:nonzero;" />
                                    </g>
                                    <path
   id="path3808"
   d="M140.14,58.77C138.849,59.323 137.591,59.947 136.37,60.64C135.146,61.295 133.988,62.065 132.91,62.94C131.935,63.702 131.076,64.601 130.36,65.61C129.73,66.463 129.381,67.49 129.36,68.55C129.358,69.341 129.465,70.129 129.68,70.89C129.872,71.567 130.166,72.211 130.55,72.8C130.884,73.291 131.3,73.721 131.78,74.07C132.223,74.379 132.75,74.546 133.29,74.55C134.42,74.508 135.519,74.163 136.47,73.55C137.72,72.791 138.928,71.967 140.09,71.08L140.14,58.77ZM153.14,80.94L140.14,80.94L140.14,77.52C139.43,78.13 138.72,78.69 138.03,79.19C137.307,79.711 136.537,80.163 135.73,80.54C134.825,80.935 133.879,81.23 132.91,81.42C131.663,81.644 130.397,81.748 129.13,81.73C127.319,81.757 125.517,81.476 123.8,80.9C122.332,80.391 120.974,79.607 119.8,78.59C118.721,77.606 117.865,76.402 117.29,75.06C116.705,73.678 116.409,72.191 116.42,70.69C116.392,69.167 116.703,67.658 117.33,66.27C117.973,64.945 118.836,63.738 119.88,62.7C121.015,61.596 122.281,60.636 123.65,59.84C125.149,58.971 126.702,58.199 128.3,57.53C129.97,56.84 131.7,56.21 133.47,55.62L138.72,53.91L140.15,53.6L140.15,49.34C140.173,48.175 140.025,47.012 139.71,45.89C139.504,45.044 139.111,44.254 138.56,43.58C138.099,42.983 137.478,42.529 136.77,42.27C136.021,41.996 135.228,41.861 134.43,41.87C133.55,41.848 132.673,41.983 131.84,42.27C131.205,42.506 130.633,42.886 130.17,43.38C129.746,43.831 129.434,44.376 129.26,44.97C129.063,45.618 128.969,46.293 128.98,46.97C128.985,47.762 128.891,48.551 128.7,49.32C128.554,50.047 128.242,50.732 127.79,51.32C127.309,51.889 126.694,52.329 126,52.6C125.083,52.982 124.093,53.159 123.1,53.12C122.247,53.13 121.398,52.995 120.59,52.72C119.889,52.456 119.241,52.066 118.68,51.57C118.154,51.068 117.724,50.475 117.41,49.82C117.119,49.13 116.969,48.389 116.97,47.64C116.978,46.139 117.513,44.688 118.48,43.54C119.599,42.179 120.979,41.057 122.54,40.24C124.408,39.264 126.399,38.544 128.46,38.1C130.795,37.56 133.184,37.291 135.58,37.3C138.228,37.255 140.871,37.538 143.45,38.14C145.408,38.577 147.269,39.37 148.94,40.48C150.297,41.406 151.393,42.667 152.12,44.14C152.815,45.646 153.157,47.292 153.12,48.95L153.14,80.94Z"
   style="fill:rgb(26,26,26);fill-rule:nonzero;" />
                                </g>
                            </g>
                        </g>
                    </g>
                </g>
            </g>
        </g>
    </g>
</svg>
